X:2575
T:Cantar de Ronda (CT 492)
R:Ronda
C:Tradicional
S:Música Tradicional Asturiana, (C) Tello & Tito. Asturies, 2001.
S:http://pagina.de/MusTradAst <telloytito@asturies.org>
N:Canción de Ronda, transcrita en Hevia, parroquia de Santa Cecilia de Careñes, ayuntamiento de Maliayo.
O:Hevia (Maliayo)
A:Asturies
Z:Cancioneru de Torner 492
M:3/4
L:1/8
Q:1/4=104
W:Para mí tu eres el sol,
W:para mí tú eres la luna;
W:todos los sitos que veo,
W:me presentan tu hermosura. (Tres)
K:C
GG
|G3 G AB|(c>B A2) BB|c3 B AG|B2 B4-|B2 z2 GG|
G3 G AB|(c>B) A2 BB|c3 B AG|B2 B2 FE|
D3 B cB|(A3/2B/4A/4) G2 FE|
D3 B cB|(A3/2B/4A/4) G4-|G2 ||


